X:614
T:East Neuk O' Fife
C:Joe Buchanan's Scottish Tome - Page 180.2
I:180 2
Z:Carl Allison
R:Reel
L:1/8
M:4/4
K:G
D2 | G2 G2 G2 (Bc) | dBGB dBGB | A2 A2 A2 (gf) | e2 ed (ef)ge |
dcBA GABc | dBGB d2 (cB) | ABcd BcAB | B2 G2 G2 :|
dc | B2 G2 G2 (dc) | B2 G2 G2 (ed) | c2 A2 A2 (fg) | a2 A2 A2 (Bc) |
d2 G2 B2 G2 | gfge d2 cB  | ABcd BcAB | G2 E2 E2 :|
